icons/svg/minetokens_detail.svg

<?xml version="1.0" encoding="UTF-8"?>
<svg width="30px" height="30px" viewBox="0 0 30 30" version="1.1" xmlns="http://www.w3.org/2000/svg" xmlns:xlink="http://www.w3.org/1999/xlink">
    <g stroke="none" stroke-width="1" fill="none" fill-rule="evenodd">
        <g transform="translate(-545.000000, -325.000000)" fill="#FFFFFF" fill-rule="nonzero">
            <g transform="translate(545.000000, 325.000000)">
                <path d="M25.7142857,15.2142857 C25.0714286,15 24.2142857,15 23.5714286,15 C18.8571429,15 15,18.8571429 15,23.5714286 C15,26.1428571 16.0714286,28.5 18,30 L2.14285714,30 C0.857142857,30 0,29.1428571 0,27.8571429 L0,2.14285714 C0,0.857142857 0.857142857,0 2.14285714,0 L23.5714286,0 C24.8571429,0 25.7142857,0.857142857 25.7142857,2.14285714 L25.7142857,15.2142857 Z M5.35714286,6.42857143 C4.71428571,6.42857143 4.28571429,6.85714286 4.28571429,7.5 C4.28571429,8.14285714 4.71428571,8.57142857 5.35714286,8.57142857 L20.3571429,8.57142857 C21,8.57142857 21.4285714,8.14285714 21.4285714,7.5 C21.4285714,6.85714286 21,6.42857143 20.3571429,6.42857143 L5.35714286,6.42857143 Z M5.35714286,13.9285714 C4.71428571,13.9285714 4.28571429,14.3571429 4.28571429,15 C4.28571429,15.6428571 4.71428571,16.0714286 5.35714286,16.0714286 L16.0714286,16.0714286 C16.7142857,16.0714286 17.1428571,15.6428571 17.1428571,15 C17.1428571,14.3571429 16.7142857,13.9285714 16.0714286,13.9285714 L5.35714286,13.9285714 Z M23.5714286,30 C19.9285714,30 17.1428571,27.2142857 17.1428571,23.5714286 C17.1428571,19.9285714 19.9285714,17.1428571 23.5714286,17.1428571 C27.2142857,17.1428571 30,19.9285714 30,23.5714286 C30,27.2142857 27.2142857,30 23.5714286,30 Z M24.4285714,22.7142857 L24.4285714,18.6428571 C24.4285714,18.2142857 24,17.7857143 23.5714286,17.7857143 C23.1428571,17.7857143 22.7142857,18.2142857 22.7142857,18.6428571 L22.7142857,23.3571429 C22.7142857,23.7857143 23.1428571,24.2142857 23.5714286,24.2142857 L27.2142857,24.2142857 C27.6428571,24.2142857 28.0714286,23.7857143 28.0714286,23.3571429 C28.0714286,22.9285714 27.6428571,22.5 27.2142857,22.5 L24.4285714,22.5 L24.4285714,22.7142857 Z" id="形状"></path>
                <path d="M25.7142857,15.2142857 C25.0714286,15 24.2142857,15 23.5714286,15 C18.8571429,15 15,18.8571429 15,23.5714286 C15,26.1428571 16.0714286,28.5 18,30 L2.14285714,30 C0.857142857,30 0,29.1428571 0,27.8571429 L0,2.14285714 C0,0.857142857 0.857142857,0 2.14285714,0 L23.5714286,0 C24.8571429,0 25.7142857,0.857142857 25.7142857,2.14285714 L25.7142857,15.2142857 Z M5.35714286,6.42857143 C4.71428571,6.42857143 4.28571429,6.85714286 4.28571429,7.5 C4.28571429,8.14285714 4.71428571,8.57142857 5.35714286,8.57142857 L20.3571429,8.57142857 C21,8.57142857 21.4285714,8.14285714 21.4285714,7.5 C21.4285714,6.85714286 21,6.42857143 20.3571429,6.42857143 L5.35714286,6.42857143 Z M5.35714286,13.9285714 C4.71428571,13.9285714 4.28571429,14.3571429 4.28571429,15 C4.28571429,15.6428571 4.71428571,16.0714286 5.35714286,16.0714286 L16.0714286,16.0714286 C16.7142857,16.0714286 17.1428571,15.6428571 17.1428571,15 C17.1428571,14.3571429 16.7142857,13.9285714 16.0714286,13.9285714 L5.35714286,13.9285714 Z M23.5714286,30 C19.9285714,30 17.1428571,27.2142857 17.1428571,23.5714286 C17.1428571,19.9285714 19.9285714,17.1428571 23.5714286,17.1428571 C27.2142857,17.1428571 30,19.9285714 30,23.5714286 C30,27.2142857 27.2142857,30 23.5714286,30 Z M24.4285714,22.7142857 L24.4285714,18.6428571 C24.4285714,18.2142857 24,17.7857143 23.5714286,17.7857143 C23.1428571,17.7857143 22.7142857,18.2142857 22.7142857,18.6428571 L22.7142857,23.3571429 C22.7142857,23.7857143 23.1428571,24.2142857 23.5714286,24.2142857 L27.2142857,24.2142857 C27.6428571,24.2142857 28.0714286,23.7857143 28.0714286,23.3571429 C28.0714286,22.9285714 27.6428571,22.5 27.2142857,22.5 L24.4285714,22.5 L24.4285714,22.7142857 Z" id="形状"></path>
            </g>
        </g>
    </g>
</svg>

<svg width="30" height="30" xmlns="http://www.w3.org/2000/svg"><g><path d="M25.714 15.214C25.071 15 24.214 15 23.571 15 18.857 15 15 18.857 15 23.571c0 2.572 1.071 4.929 3 6.429H2.143C.857 30 0 29.143 0 27.857V2.143C0 .857.857 0 2.143 0H23.57c1.286 0 2.143.857 2.143 2.143v13.071zM5.357 6.43c-.643 0-1.071.428-1.071 1.071s.428 1.071 1.071 1.071h15c.643 0 1.072-.428 1.072-1.071S21 6.429 20.357 6.429h-15zm0 7.5c-.643 0-1.071.428-1.071 1.071s.428 1.071 1.071 1.071h10.714c.643 0 1.072-.428 1.072-1.071s-.429-1.071-1.072-1.071H5.357zM23.571 30c-3.642 0-6.428-2.786-6.428-6.429 0-3.642 2.786-6.428 6.428-6.428 3.643 0 6.429 2.786 6.429 6.428C30 27.214 27.214 30 23.571 30zm.858-7.286v-4.071c0-.429-.429-.857-.858-.857-.428 0-.857.428-.857.857v4.714c0 .429.429.857.857.857h3.643c.429 0 .857-.428.857-.857 0-.428-.428-.857-.857-.857H24.43v.214z"/><path d="M25.714 15.214C25.071 15 24.214 15 23.571 15 18.857 15 15 18.857 15 23.571c0 2.572 1.071 4.929 3 6.429H2.143C.857 30 0 29.143 0 27.857V2.143C0 .857.857 0 2.143 0H23.57c1.286 0 2.143.857 2.143 2.143v13.071zM5.357 6.43c-.643 0-1.071.428-1.071 1.071s.428 1.071 1.071 1.071h15c.643 0 1.072-.428 1.072-1.071S21 6.429 20.357 6.429h-15zm0 7.5c-.643 0-1.071.428-1.071 1.071s.428 1.071 1.071 1.071h10.714c.643 0 1.072-.428 1.072-1.071s-.429-1.071-1.072-1.071H5.357zM23.571 30c-3.642 0-6.428-2.786-6.428-6.429 0-3.642 2.786-6.428 6.428-6.428 3.643 0 6.429 2.786 6.429 6.428C30 27.214 27.214 30 23.571 30zm.858-7.286v-4.071c0-.429-.429-.857-.858-.857-.428 0-.857.428-.857.857v4.714c0 .429.429.857.857.857h3.643c.429 0 .857-.428.857-.857 0-.428-.428-.857-.857-.857H24.43v.214z"/></g></svg>
